X: 22979
T: Lasse Lille Vän
R: waltz
M: 3/4
K: Dmajor
fd dd eg|fd dd eg|f2 dc Ac|e2a2g2|
fd dd eg|fd dd eg|f2 dc Ac|e2d4:|
|:fd fa g2|ec eg f2|dd ec Ac|e2d4:|

